X:464
T:
R:vals
S:Efter klockaren O. Laugren i Alva, m. fl.
O:Gotland, Alva
M:3/4
L:1/8
K:F
C2|C2 F2 A2|c6|dc=BcAF|(FE) (GE) C2|C2 E2 G2|B4 B2|dc=Bc_BG|F4::Ac|(fF)(Ac) (fe)|
(dD)(GB) (dc)|(BC)(EG) cB|(AE)(FA)(ce)|(fF)(Ac) (fe)|(dD)(GB) (dc)|(BC) (EG) (cE)|
F4::(AB)|c2 a2 f2|c3 d c2|cBGceg|ba^ga f2|a4 gf|edcdef|g4 fd|c4::F2|B4 {cB}G>F|
FE E4|{G}F>EF>GA>B|=Bc c4|d3 ef>d|c3 AFA|(c=B)(_BG) (EG)|F4:|

